projects/vfh1/img/icons-service/group.svg

<svg viewBox="0 0 33 28" fill="none" xmlns="http://www.w3.org/2000/svg">
<path d="M18.6673 7.33761C18.6673 7.77105 18.5388 8.19475 18.298 8.55515C18.0572 8.91554 17.7149 9.19644 17.3145 9.36231C16.914 9.52818 16.4734 9.57158 16.0483 9.48702C15.6232 9.40246 15.2327 9.19374 14.9262 8.88725C14.6197 8.58076 14.411 8.19026 14.3264 7.76515C14.2419 7.34004 14.2853 6.89939 14.4511 6.49895C14.617 6.0985 14.8979 5.75624 15.2583 5.51543C15.6187 5.27463 16.0424 5.14609 16.4758 5.14609C17.057 5.14609 17.6145 5.37699 18.0255 5.78798C18.4364 6.19897 18.6673 6.75638 18.6673 7.33761Z" fill="#42474D"/>
<path d="M10.7521 26.0214L11.9123 24.5603L14.2327 21.6383L15.9516 19.4554L16.0977 19.2663C16.2675 19.0543 16.3461 18.7836 16.3163 18.5136C16.2865 18.2437 16.1507 17.9966 15.9387 17.8268C15.7267 17.657 15.456 17.5783 15.186 17.6082C14.916 17.638 14.669 17.7738 14.4992 17.9858L13.3389 19.4468L11.0615 22.3688L9.34265 24.5517L9.18795 24.7408C9.03759 24.9532 8.97388 25.215 9.00978 25.4728C9.04569 25.7305 9.17852 25.9649 9.38121 26.1282C9.5839 26.2914 9.8412 26.3712 10.1007 26.3514C10.3602 26.3316 10.6024 26.2135 10.7779 26.0214H10.7521Z" fill="#42474D"/>
<path d="M22.2339 26.0213L21.0737 24.5603L18.7533 21.6383C18.1775 20.9078 17.6016 20.1773 17.0344 19.4554C16.9906 19.3888 16.9417 19.3256 16.8883 19.2663C16.738 19.0539 16.6743 18.7921 16.7102 18.5344C16.7461 18.2766 16.8789 18.0422 17.0816 17.879C17.2843 17.7157 17.5416 17.6359 17.8011 17.6557C18.0606 17.6756 18.3027 17.7936 18.4783 17.9858L19.6385 19.4468L21.9589 22.3688L23.6777 24.5517L23.8238 24.7408C23.918 24.8439 23.9901 24.9652 24.0356 25.0973C24.0811 25.2293 24.0991 25.3692 24.0884 25.5085C24.0778 25.6477 24.0387 25.7833 23.9737 25.9069C23.9086 26.0304 23.8189 26.1394 23.7102 26.227C23.6014 26.3146 23.4759 26.379 23.3413 26.4162C23.2067 26.4534 23.0659 26.4627 22.9276 26.4434C22.7893 26.4241 22.6564 26.3767 22.5371 26.3042C22.4178 26.2316 22.3146 26.1353 22.2339 26.0213Z" fill="#42474D"/>
<path d="M20.2744 5.1031C19.889 4.3589 19.4158 3.66354 18.865 3.0319C18.6402 2.75696 18.3992 2.49579 18.1431 2.24983C17.9685 2.08917 17.74 2 17.5028 2C17.2656 2 17.037 2.08917 16.8625 2.24983C16.7793 2.33 16.7132 2.42611 16.668 2.53243C16.6228 2.63875 16.5995 2.75309 16.5995 2.86861C16.5995 2.98413 16.6228 3.09848 16.668 3.20479C16.7132 3.31111 16.7793 3.40722 16.8625 3.48739C17.1688 3.78999 17.4558 4.11146 17.7219 4.44994C18.1395 4.9818 18.4969 5.55826 18.7876 6.16877C18.9215 6.49294 19.0223 6.82983 19.0884 7.17429C19.1097 7.39436 19.1097 7.61598 19.0884 7.83605C19.0398 8.14531 18.9562 8.44805 18.8392 8.73844C18.7503 8.93293 18.6408 9.11733 18.5126 9.28847C18.4104 9.41516 18.2919 9.52785 18.1602 9.62364C18.0364 9.7114 17.904 9.78627 17.7649 9.84708C17.5994 9.90486 17.4299 9.95082 17.2579 9.98459H16.8625H16.0719H15.6851C15.5128 9.95176 15.3433 9.90579 15.1781 9.84708C15.0363 9.78631 14.901 9.71146 14.7741 9.62364C14.6444 9.52561 14.5262 9.41317 14.4218 9.28847C14.2967 9.11528 14.1874 8.93119 14.0952 8.73844C13.9822 8.44672 13.8987 8.14441 13.846 7.83605C13.8202 7.61621 13.8202 7.39412 13.846 7.17429C13.909 6.83007 14.0069 6.49316 14.1382 6.16877C14.4289 5.55826 14.7863 4.9818 15.2038 4.44994C15.4699 4.11146 15.757 3.78999 16.0633 3.48739C16.1464 3.40722 16.2126 3.31111 16.2578 3.20479C16.303 3.09848 16.3263 2.98413 16.3263 2.86861C16.3263 2.75309 16.303 2.63875 16.2578 2.53243C16.2126 2.42611 16.1464 2.33 16.0633 2.24983C15.8887 2.08917 15.6602 2 15.423 2C15.1858 2 14.9572 2.08917 14.7827 2.24983C14.5266 2.49579 14.2855 2.75696 14.0608 3.0319C13.51 3.66354 13.0368 4.3589 12.6514 5.1031C12.1844 5.95375 11.9669 6.9189 12.024 7.88761C12.1132 8.90713 12.5326 9.8697 13.2186 10.6292C13.6898 11.1122 14.2842 11.4569 14.9374 11.6261C15.2824 11.715 15.6386 11.7527 15.9945 11.7378C16.133 11.7257 16.269 11.6938 16.3984 11.6433C16.5279 11.6938 16.6639 11.7257 16.8024 11.7378C17.184 11.759 17.5666 11.7214 17.9368 11.6261C18.5884 11.4529 19.1818 11.1087 19.6556 10.6292C20.3385 9.86766 20.7574 8.90619 20.8502 7.88761C20.9203 6.924 20.7209 5.9599 20.2744 5.1031Z" fill="#42474D"/>
<path d="M18.5126 11.0503H14.439C14.4077 11.0524 14.3771 11.0608 14.3492 11.0751C14.3212 11.0893 14.2965 11.1091 14.2764 11.1332C14.2563 11.1573 14.2413 11.1852 14.2323 11.2153C14.2234 11.2454 14.2206 11.2769 14.2241 11.3081V18.9397C14.2205 18.9713 14.2233 19.0034 14.2322 19.0339C14.2411 19.0645 14.2559 19.093 14.2759 19.1178C14.2959 19.1426 14.3206 19.1631 14.3486 19.1783C14.3766 19.1935 14.4073 19.2029 14.439 19.2061H16.1578C16.1868 19.1452 16.2316 19.0932 16.2875 19.0554C16.3434 19.0176 16.4084 18.9955 16.4758 18.9913C16.6305 18.9913 16.7078 19.0686 16.7938 19.2061H18.5126C18.5443 19.2029 18.575 19.1935 18.603 19.1783C18.631 19.1631 18.6557 19.1426 18.6757 19.1178C18.6957 19.093 18.7105 19.0645 18.7194 19.0339C18.7283 19.0034 18.731 18.9713 18.7275 18.9397V11.3081C18.731 11.2769 18.7282 11.2454 18.7192 11.2153C18.7103 11.1852 18.6953 11.1573 18.6752 11.1332C18.6551 11.1091 18.6303 11.0893 18.6024 11.0751C18.5745 11.0608 18.5439 11.0524 18.5126 11.0503Z" fill="#42474D"/>
<path d="M13.9491 11.1104V11.1792C14.0338 11.2419 14.1028 11.3235 14.1505 11.4175C14.1982 11.5114 14.2234 11.6152 14.2241 11.7206H14.439V11.1104H13.9491Z" fill="#42474D"/>
<path d="M19.0112 11.1104V11.1792C18.9264 11.2419 18.8575 11.3235 18.8097 11.4175C18.762 11.5114 18.7368 11.6152 18.7361 11.7206H18.5127V11.1104H19.0112Z" fill="#42474D"/>
<path d="M26.687 11.2533C26.687 11.598 26.5848 11.9349 26.3934 12.2215C26.2019 12.508 25.9297 12.7314 25.6113 12.8633C25.2929 12.9952 24.9425 13.0297 24.6045 12.9625C24.2664 12.8952 23.9559 12.7293 23.7122 12.4855C23.4685 12.2418 23.3026 11.9313 23.2353 11.5933C23.1681 11.2553 23.2026 10.9049 23.3345 10.5865C23.4664 10.2681 23.6897 9.99591 23.9763 9.80443C24.2629 9.61295 24.5998 9.51074 24.9444 9.51074C25.4066 9.51074 25.8498 9.69434 26.1766 10.0211C26.5034 10.3479 26.687 10.7912 26.687 11.2533Z" fill="#42474D"/>
<path d="M20.3932 26.1098L21.3157 24.9481L23.1608 22.6246L24.5276 20.8889L24.6437 20.7385C24.7788 20.57 24.8413 20.3547 24.8176 20.14C24.7939 19.9254 24.6859 19.7289 24.5173 19.5939C24.3488 19.4589 24.1335 19.3963 23.9188 19.42C23.7042 19.4437 23.5077 19.5517 23.3727 19.7203L22.4501 20.882L20.6392 23.2055L19.2725 24.9413L19.1495 25.0916C19.0299 25.2605 18.9792 25.4686 19.0078 25.6736C19.0363 25.8786 19.1419 26.0649 19.3031 26.1947C19.4643 26.3246 19.6689 26.388 19.8752 26.3723C20.0816 26.3565 20.2741 26.2626 20.4137 26.1098H20.3932Z" fill="#42474D"/>
<path d="M29.523 26.1098L28.6005 24.9481L26.7554 22.6246C26.2975 22.0437 25.8396 21.4629 25.3886 20.8888C25.3537 20.8359 25.3149 20.7856 25.2724 20.7385C25.1529 20.5696 25.1022 20.3615 25.1308 20.1565C25.1593 19.9515 25.2649 19.7652 25.4261 19.6353C25.5873 19.5055 25.7919 19.4421 25.9982 19.4578C26.2046 19.4736 26.3971 19.5675 26.5367 19.7203L27.4592 20.882L29.3043 23.2055L30.6711 24.9412L30.7872 25.0916C30.8621 25.1736 30.9194 25.27 30.9556 25.375C30.9918 25.48 31.0061 25.5913 30.9976 25.702C30.9891 25.8127 30.9581 25.9205 30.9064 26.0188C30.8546 26.117 30.7833 26.2037 30.6969 26.2733C30.6104 26.343 30.5105 26.3942 30.4035 26.4238C30.2965 26.4534 30.1845 26.4607 30.0746 26.4454C29.9646 26.4301 29.8589 26.3924 29.764 26.3347C29.6692 26.277 29.5872 26.2004 29.523 26.1098Z" fill="#42474D"/>
<path d="M27.9649 9.47657C27.6584 8.88481 27.2822 8.3319 26.8442 7.82965C26.6655 7.61102 26.4738 7.40335 26.2702 7.20778C26.1314 7.08003 25.9497 7.00912 25.761 7.00912C25.5724 7.00912 25.3907 7.08003 25.2519 7.20778C25.1858 7.27152 25.1332 7.34795 25.0972 7.43249C25.0613 7.51703 25.0428 7.60795 25.0428 7.6998C25.0428 7.79166 25.0613 7.88258 25.0972 7.96712C25.1332 8.05166 25.1858 8.12808 25.2519 8.19183C25.4955 8.43244 25.7237 8.68806 25.9353 8.9572C26.2673 9.38012 26.5515 9.83849 26.7827 10.3239C26.8892 10.5817 26.9693 10.8496 27.0219 11.1235C27.0388 11.2985 27.0388 11.4747 27.0219 11.6497C26.9832 11.8956 26.9167 12.1363 26.8237 12.3672C26.753 12.5219 26.6659 12.6685 26.564 12.8046C26.4827 12.9053 26.3885 12.9949 26.2838 13.0711C26.1854 13.1409 26.08 13.2004 25.9695 13.2488C25.8378 13.2947 25.7031 13.3313 25.5663 13.3581H25.2519H24.6232H24.3157C24.1787 13.332 24.0439 13.2954 23.9125 13.2488C23.7998 13.2004 23.6922 13.1409 23.5913 13.0711C23.4882 12.9931 23.3942 12.9037 23.3112 12.8046C23.2117 12.6669 23.1248 12.5205 23.0515 12.3672C22.9616 12.1353 22.8952 11.8949 22.8533 11.6497C22.8328 11.4749 22.8328 11.2983 22.8533 11.1235C22.9034 10.8498 22.9813 10.5819 23.0856 10.3239C23.3168 9.83849 23.601 9.38012 23.933 8.9572C24.1446 8.68806 24.3728 8.43244 24.6164 8.19183C24.6825 8.12808 24.7351 8.05166 24.7711 7.96712C24.807 7.88258 24.8255 7.79166 24.8255 7.6998C24.8255 7.60795 24.807 7.51703 24.7711 7.43249C24.7351 7.34795 24.6825 7.27152 24.6164 7.20778C24.4776 7.08003 24.2959 7.00912 24.1073 7.00912C23.9187 7.00912 23.7369 7.08003 23.5982 7.20778C23.3945 7.40335 23.2028 7.61102 23.0241 7.82965C22.5861 8.3319 22.2099 8.88481 21.9034 9.47657C21.5321 10.153 21.3592 10.9204 21.4046 11.6907C21.4755 12.5014 21.809 13.2668 22.3544 13.8706C22.7291 14.2547 23.2018 14.5288 23.7212 14.6633C23.9955 14.7341 24.2787 14.764 24.5617 14.7522C24.6718 14.7425 24.78 14.7172 24.8829 14.677C24.9858 14.7172 25.094 14.7425 25.2041 14.7522C25.5076 14.7691 25.8118 14.7391 26.1061 14.6633C26.6242 14.5257 27.0961 14.252 27.4729 13.8706C28.0158 13.2651 28.349 12.5006 28.4228 11.6907C28.4785 10.9245 28.3199 10.1579 27.9649 9.47657Z" fill="#42474D"/>
<path d="M26.564 14.2055H23.3248C23.2999 14.2072 23.2756 14.2139 23.2534 14.2252C23.2312 14.2366 23.2115 14.2523 23.1956 14.2714C23.1796 14.2906 23.1677 14.3128 23.1605 14.3367C23.1534 14.3606 23.1512 14.3857 23.154 14.4105V20.4788C23.1511 20.504 23.1533 20.5294 23.1604 20.5537C23.1675 20.578 23.1793 20.6007 23.1952 20.6204C23.2111 20.6401 23.2307 20.6565 23.253 20.6685C23.2752 20.6806 23.2996 20.6881 23.3248 20.6907H24.6916C24.7146 20.6422 24.7502 20.6008 24.7947 20.5708C24.8392 20.5407 24.8909 20.5231 24.9444 20.5198C25.0674 20.5198 25.1289 20.5813 25.1973 20.6907H26.564C26.5892 20.6881 26.6136 20.6806 26.6359 20.6685C26.6581 20.6565 26.6778 20.6401 26.6937 20.6204C26.7095 20.6007 26.7214 20.578 26.7284 20.5537C26.7355 20.5294 26.7377 20.504 26.7348 20.4788V14.4105C26.7377 14.3857 26.7354 14.3606 26.7283 14.3367C26.7212 14.3128 26.7092 14.2906 26.6933 14.2714C26.6773 14.2523 26.6576 14.2366 26.6354 14.2252C26.6132 14.2139 26.5889 14.2072 26.564 14.2055Z" fill="#42474D"/>
<path d="M22.9353 14.2533V14.308C23.0027 14.3579 23.0575 14.4227 23.0955 14.4975C23.1334 14.5722 23.1535 14.6547 23.154 14.7385H23.3248V14.2533H22.9353Z" fill="#42474D"/>
<path d="M26.9604 14.2533V14.308C26.8931 14.3579 26.8382 14.4227 26.8003 14.4975C26.7623 14.5722 26.7423 14.6547 26.7418 14.7385H26.5641V14.2533H26.9604Z" fill="#42474D"/>
<path d="M9.68703 11.2533C9.68703 11.598 9.58483 11.9349 9.39335 12.2215C9.20187 12.508 8.92972 12.7314 8.6113 12.8633C8.29288 12.9952 7.94251 13.0297 7.60448 12.9625C7.26645 12.8952 6.95594 12.7293 6.71224 12.4855C6.46853 12.2418 6.30257 11.9313 6.23533 11.5933C6.16809 11.2553 6.2026 10.9049 6.33449 10.5865C6.46638 10.2681 6.68974 9.99591 6.9763 9.80443C7.26287 9.61295 7.59979 9.51074 7.94444 9.51074C8.4066 9.51074 8.84984 9.69434 9.17664 10.0211C9.50344 10.3479 9.68703 10.7912 9.68703 11.2533Z" fill="#42474D"/>
<path d="M3.39319 26.1098L4.31574 24.9481L6.16084 22.6246L7.52757 20.8889L7.64375 20.7385C7.77877 20.57 7.84131 20.3547 7.8176 20.14C7.79389 19.9254 7.68588 19.7289 7.51732 19.5939C7.34877 19.4589 7.13348 19.3963 6.91882 19.42C6.70416 19.4437 6.5077 19.5517 6.37268 19.7203L5.45013 20.882L3.6392 23.2055L2.27246 24.9413L2.14945 25.0916C2.02989 25.2605 1.97923 25.4686 2.00778 25.6736C2.03633 25.8786 2.14195 26.0649 2.30312 26.1947C2.46429 26.3246 2.66889 26.388 2.87523 26.3723C3.08157 26.3565 3.27413 26.2626 3.41369 26.1098H3.39319Z" fill="#42474D"/>
<path d="M12.523 26.1098L11.6005 24.9481L9.75535 22.6246C9.29749 22.0437 8.83964 21.4629 8.38861 20.8888C8.35373 20.8359 8.3149 20.7856 8.27244 20.7385C8.15288 20.5696 8.10221 20.3615 8.13077 20.1565C8.15932 19.9515 8.26494 19.7652 8.42611 19.6353C8.58728 19.5055 8.79187 19.4421 8.99821 19.4578C9.20455 19.4736 9.39712 19.5675 9.53667 19.7203L10.4592 20.882L12.3043 23.2055L13.6711 24.9412L13.7872 25.0916C13.8621 25.1736 13.9194 25.27 13.9556 25.375C13.9918 25.48 14.0061 25.5913 13.9976 25.702C13.9891 25.8127 13.9581 25.9205 13.9064 26.0188C13.8546 26.117 13.7833 26.2037 13.6969 26.2733C13.6104 26.343 13.5105 26.3942 13.4035 26.4238C13.2965 26.4534 13.1845 26.4607 13.0746 26.4454C12.9646 26.4301 12.8589 26.3924 12.764 26.3347C12.6692 26.277 12.5872 26.2004 12.523 26.1098Z" fill="#42474D"/>
<path d="M10.9649 9.47657C10.6584 8.88481 10.2822 8.3319 9.84418 7.82965C9.6655 7.61102 9.47381 7.40335 9.27015 7.20778C9.13138 7.08003 8.94965 7.00912 8.76104 7.00912C8.57242 7.00912 8.3907 7.08003 8.25193 7.20778C8.18579 7.27152 8.13318 7.34795 8.09725 7.43249C8.06132 7.51703 8.0428 7.60795 8.0428 7.6998C8.0428 7.79166 8.06132 7.88258 8.09725 7.96712C8.13318 8.05166 8.18579 8.12808 8.25193 8.19183C8.49547 8.43244 8.72371 8.68806 8.9353 8.9572C9.26733 9.38012 9.55152 9.83849 9.78268 10.3239C9.88917 10.5817 9.9693 10.8496 10.0219 11.1235C10.0388 11.2985 10.0388 11.4747 10.0219 11.6497C9.98318 11.8956 9.9167 12.1363 9.82368 12.3672C9.753 12.5219 9.66594 12.6685 9.564 12.8046C9.48269 12.9053 9.38849 12.9949 9.28382 13.0711C9.18536 13.1409 9.08003 13.2004 8.96947 13.2488C8.83783 13.2947 8.70309 13.3313 8.56628 13.3581H8.25193H7.62323H7.31571C7.17872 13.332 7.04393 13.2954 6.91252 13.2488C6.79978 13.2004 6.69218 13.1409 6.59134 13.0711C6.48816 12.9931 6.39416 12.9037 6.31116 12.8046C6.21167 12.6669 6.12476 12.5205 6.05148 12.3672C5.96162 12.1353 5.89523 11.8949 5.8533 11.6497C5.83283 11.4749 5.83283 11.2983 5.8533 11.1235C5.90342 10.8498 5.98127 10.5819 6.08564 10.3239C6.3168 9.83849 6.60099 9.38012 6.93302 8.9572C7.14461 8.68806 7.37285 8.43244 7.61639 8.19183C7.68253 8.12808 7.73514 8.05166 7.77107 7.96712C7.807 7.88258 7.82552 7.79166 7.82552 7.6998C7.82552 7.60795 7.807 7.51703 7.77107 7.43249C7.73514 7.34795 7.68253 7.27152 7.61639 7.20778C7.47762 7.08003 7.2959 7.00912 7.10728 7.00912C6.91867 7.00912 6.73694 7.08003 6.59817 7.20778C6.39452 7.40335 6.20283 7.61102 6.02414 7.82965C5.58614 8.3319 5.20988 8.88481 4.90341 9.47657C4.5321 10.153 4.35919 10.9204 4.40455 11.6907C4.47545 12.5014 4.80896 13.2668 5.35444 13.8706C5.7291 14.2547 6.20177 14.5288 6.72118 14.6633C6.99548 14.7341 7.2787 14.764 7.56172 14.7522C7.67182 14.7425 7.77997 14.7172 7.88291 14.677C7.98585 14.7172 8.094 14.7425 8.20409 14.7522C8.50755 14.7691 8.8118 14.7391 9.10614 14.6633C9.62424 14.5257 10.0961 14.252 10.4729 13.8706C11.0158 13.2651 11.349 12.5006 11.4228 11.6907C11.4785 10.9245 11.3199 10.1579 10.9649 9.47657Z" fill="#42474D"/>
<path d="M9.564 14.2055H6.32482C6.29994 14.2072 6.27565 14.2139 6.25343 14.2252C6.23121 14.2366 6.21152 14.2523 6.19556 14.2714C6.17959 14.2906 6.16767 14.3128 6.16052 14.3367C6.15338 14.3606 6.15115 14.3857 6.15398 14.4105V20.4788C6.15114 20.504 6.15332 20.5294 6.16039 20.5537C6.16746 20.578 6.17928 20.6007 6.19517 20.6204C6.21106 20.6401 6.2307 20.6565 6.25296 20.6685C6.27521 20.6806 6.29964 20.6881 6.32482 20.6907H7.69156C7.71463 20.6422 7.75024 20.6008 7.7947 20.5708C7.83916 20.5407 7.89085 20.5231 7.94441 20.5198C8.06742 20.5198 8.12892 20.5813 8.19726 20.6907H9.564C9.58918 20.6881 9.61361 20.6806 9.63586 20.6685C9.65812 20.6565 9.67776 20.6401 9.69365 20.6204C9.70954 20.6007 9.72136 20.578 9.72843 20.5537C9.7355 20.5294 9.73768 20.504 9.73484 20.4788V14.4105C9.73767 14.3857 9.73544 14.3606 9.7283 14.3367C9.72115 14.3128 9.70923 14.2906 9.69326 14.2714C9.6773 14.2523 9.65761 14.2366 9.63539 14.2252C9.61317 14.2139 9.58888 14.2072 9.564 14.2055Z" fill="#42474D"/>
<path d="M5.9353 14.2533V14.308C6.00267 14.3579 6.0575 14.4227 6.09546 14.4975C6.13341 14.5722 6.15345 14.6547 6.15398 14.7385H6.32482V14.2533H5.9353Z" fill="#42474D"/>
<path d="M9.96044 14.2533V14.308C9.89308 14.3579 9.83824 14.4227 9.80029 14.4975C9.76233 14.5722 9.74229 14.6547 9.74176 14.7385H9.56409V14.2533H9.96044Z" fill="#42474D"/>
</svg>

<svg viewBox="0 0 33 28" fill="none" xmlns="http://www.w3.org/2000/svg"><path d="M18.667 7.338a2.192 2.192 0 11-4.383 0 2.192 2.192 0 014.383 0zm-7.915 18.683l1.16-1.46 2.32-2.923 1.72-2.183.146-.189a1.024 1.024 0 00-1.599-1.28l-1.16 1.46-2.277 2.923-1.72 2.183-.154.189a1.023 1.023 0 001.59 1.28h-.026zm11.482 0l-1.16-1.46-2.32-2.923c-.577-.73-1.152-1.46-1.72-2.183a1.58 1.58 0 00-.146-.189 1.023 1.023 0 011.59-1.28l1.16 1.46 2.32 2.923 1.72 2.183.146.189a1.022 1.022 0 11-1.59 1.28z" fill="#42474D"/><path d="M20.274 5.103a10.494 10.494 0 00-1.409-2.071 8.86 8.86 0 00-.722-.782.946.946 0 00-1.28 0 .86.86 0 000 1.237c.306.303.593.624.859.963a9.16 9.16 0 011.066 1.719c.134.324.234.66.3 1.005.022.22.022.442 0 .662a4.13 4.13 0 01-.249.902 2.992 2.992 0 01-.326.55c-.103.127-.221.24-.353.336a2.224 2.224 0 01-.395.223 3.703 3.703 0 01-.507.138h-1.573a3.433 3.433 0 01-.507-.138 2.306 2.306 0 01-.404-.223 2.151 2.151 0 01-.352-.336 3.57 3.57 0 01-.327-.55 4.682 4.682 0 01-.249-.902 2.839 2.839 0 010-.662c.063-.344.16-.68.292-1.005.29-.61.648-1.187 1.066-1.72.266-.338.553-.659.86-.962a.86.86 0 000-1.237.946.946 0 00-1.281 0 8.845 8.845 0 00-.722.782 10.494 10.494 0 00-1.41 2.071 5.156 5.156 0 00-.627 2.785 4.701 4.701 0 001.195 2.741 3.696 3.696 0 001.718.997c.345.089.702.127 1.058.112a1.46 1.46 0 00.403-.095c.13.05.266.083.404.095a3.74 3.74 0 001.135-.112 3.782 3.782 0 001.719-.997 4.752 4.752 0 001.194-2.741 5.208 5.208 0 00-.576-2.785z" fill="#42474D"/><path d="M18.513 11.05h-4.074a.23.23 0 00-.215.258v7.632a.24.24 0 00.215.266h1.719a.378.378 0 01.318-.215c.155 0 .232.078.318.215h1.719a.24.24 0 00.214-.266v-7.632a.233.233 0 00-.214-.258z" fill="#42474D"/><path d="M13.95 11.11v.07a.679.679 0 01.274.54h.215v-.61h-.49zm5.061 0v.07a.679.679 0 00-.275.54h-.223v-.61h.498zm7.676.143a1.743 1.743 0 11-3.487 0 1.743 1.743 0 013.487 0zM20.393 26.11l.923-1.162 1.845-2.323 1.367-1.736.116-.15a.814.814 0 10-1.271-1.019l-.923 1.162-1.81 2.323-1.367 1.736-.123.15a.813.813 0 001.264 1.019h-.02zm9.13 0l-.922-1.162-1.846-2.323-1.366-1.736a1.26 1.26 0 00-.117-.15.813.813 0 011.265-1.019l.922 1.162 1.845 2.323 1.367 1.736.116.15a.813.813 0 11-1.264 1.019z" fill="#42474D"/><path d="M27.965 9.477a8.345 8.345 0 00-1.12-1.647 7.04 7.04 0 00-.575-.622.752.752 0 00-1.018 0 .685.685 0 000 .984c.244.24.472.496.683.765.332.423.617.881.848 1.367.106.258.186.526.239.8.017.175.017.35 0 .526a3.29 3.29 0 01-.198.717 2.42 2.42 0 01-.26.438c-.081.1-.175.19-.28.266-.099.07-.204.13-.314.178a2.946 2.946 0 01-.404.11h-1.25a2.741 2.741 0 01-.403-.11 1.843 1.843 0 01-.322-.178 1.715 1.715 0 01-.28-.266 2.834 2.834 0 01-.26-.438 3.717 3.717 0 01-.198-.717 2.259 2.259 0 010-.527 4.09 4.09 0 01.233-.8 7.29 7.29 0 01.847-1.366c.212-.269.44-.525.683-.765a.685.685 0 000-.984.752.752 0 00-1.018 0 7.027 7.027 0 00-.574.622 8.345 8.345 0 00-1.12 1.647 4.1 4.1 0 00-.5 2.214 3.75 3.75 0 00.95 2.18 2.938 2.938 0 002.207.882c.11-.01.219-.036.322-.076.103.04.211.066.321.075.304.017.608-.013.902-.089.518-.137.99-.411 1.367-.792a3.78 3.78 0 00.95-2.18 4.142 4.142 0 00-.458-2.214z" fill="#42474D"/><path d="M26.564 14.206h-3.24a.185.185 0 00-.17.205v6.068a.19.19 0 00.099.19.19.19 0 00.072.022h1.367a.3.3 0 01.252-.171c.123 0 .185.061.253.17h1.367a.192.192 0 00.17-.211V14.41a.184.184 0 00-.17-.205z" fill="#42474D"/><path d="M22.935 14.253v.055a.54.54 0 01.219.43h.17v-.485h-.389zm4.025 0v.055a.54.54 0 00-.218.43h-.178v-.485h.396zm-17.273-3a1.743 1.743 0 11-3.485 0 1.743 1.743 0 013.485 0zM3.393 26.11l.923-1.162 1.845-2.323 1.367-1.736.116-.15a.814.814 0 10-1.271-1.019l-.923 1.162-1.81 2.323-1.368 1.736-.123.15a.813.813 0 001.265 1.019h-.02zm9.13 0l-.922-1.162-1.846-2.323-1.366-1.736a1.262 1.262 0 00-.117-.15.813.813 0 011.265-1.019l.922 1.162 1.845 2.323 1.367 1.736.116.15a.813.813 0 11-1.264 1.019z" fill="#42474D"/><path d="M10.965 9.477a8.345 8.345 0 00-1.12-1.647 7.029 7.029 0 00-.575-.622.752.752 0 00-1.018 0 .683.683 0 000 .984 8.2 8.2 0 01.683.765c.332.423.617.881.848 1.367.106.258.186.526.239.8.017.175.017.35 0 .526a3.29 3.29 0 01-.198.717 2.42 2.42 0 01-.26.438 1.502 1.502 0 01-.595.444 2.943 2.943 0 01-.403.11h-1.25a2.742 2.742 0 01-.403-.11 1.839 1.839 0 01-.322-.178 1.713 1.713 0 01-.28-.266 2.834 2.834 0 01-.26-.438 3.722 3.722 0 01-.198-.717 2.262 2.262 0 010-.527 4.09 4.09 0 01.233-.8c.23-.485.515-.943.847-1.366a8.2 8.2 0 01.683-.765.683.683 0 000-.984.752.752 0 00-1.018 0 7.032 7.032 0 00-.574.622 8.344 8.344 0 00-1.12 1.647 4.1 4.1 0 00-.5 2.214c.071.81.405 1.576.95 2.18a2.938 2.938 0 002.207.882c.11-.01.219-.036.322-.076.103.04.211.066.321.075.304.017.608-.013.902-.089.518-.137.99-.411 1.367-.792a3.78 3.78 0 00.95-2.18 4.142 4.142 0 00-.458-2.214z" fill="#42474D"/><path d="M9.564 14.206h-3.24a.185.185 0 00-.17.205v6.068a.191.191 0 00.17.212h1.368a.3.3 0 01.252-.171c.123 0 .185.061.253.17h1.367a.192.192 0 00.17-.211V14.41a.185.185 0 00-.17-.205z" fill="#42474D"/><path d="M5.935 14.253v.055a.54.54 0 01.219.43h.17v-.485h-.389zm4.025 0v.055a.54.54 0 00-.218.43h-.178v-.485h.396z" fill="#42474D"/></svg>
